Sources/FrostedUI/Resources/Icons.xcassets/webcamOff24.imageset/webcam-off-24.svg

<svg width="24" height="24" viewBox="0 0 24 24" fill="none" xmlns="http://www.w3.org/2000/svg" data-fui-icon="true">
  <path
    d="M2.09509 2.09546C2.3843 1.80637 2.85029 1.80284 3.14392 2.08472L21.9154 20.8562C22.1975 21.1498 22.1948 21.6167 21.9056 21.906C21.6129 22.1985 21.1379 22.1983 20.8451 21.906L17.2707 18.3316C17.096 18.157 16.8032 18.1963 16.6609 18.3982C15.712 19.7446 14.1487 20.6256 12.3754 20.6257H7.12537C4.31678 20.6257 2.02331 18.4197 1.8822 15.6462L1.87537 15.3757V8.62573C1.87537 7.20722 2.43857 5.92073 3.3529 4.97608C3.50297 4.82103 3.51134 4.57225 3.35876 4.41967L2.09509 3.15601C1.80228 2.8632 1.80245 2.38837 2.09509 2.09546ZM4.94667 6.00758C4.80869 5.8696 4.58637 5.85916 4.44965 5.99838C3.7852 6.67499 3.37537 7.60251 3.37537 8.62573V15.3757L3.38025 15.5691C3.4812 17.55 5.1194 19.1257 7.12537 19.1257H12.3754C13.8223 19.1256 15.0773 18.3046 15.7018 17.1034C15.7729 16.9666 15.7402 16.8011 15.6312 16.6921L4.94667 6.00758ZM12.3754 3.37573C14.4439 3.37588 16.2306 4.5721 17.0856 6.31012C17.2033 6.54939 17.5211 6.62707 17.7182 6.44744L18.8607 5.40601C20.1127 4.2639 22.1253 5.15226 22.1254 6.84644V17.155L22.1195 17.3113C22.0965 17.6183 22.0052 17.8949 21.8651 18.1342C21.7567 18.3195 21.5049 18.3246 21.3532 18.1729L20.6814 17.5011C20.6116 17.4313 20.6055 17.3238 20.6205 17.2263L20.6254 17.155V6.84644C20.6253 6.45526 20.161 6.2509 19.8724 6.51343L17.476 8.69995C16.9589 9.17139 16.1737 8.82539 16.098 8.18433C15.88 6.32152 14.2962 4.87593 12.3754 4.87573H8.21136C8.1119 4.87573 8.01652 4.83622 7.9462 4.7659L6.96728 3.78698C6.8135 3.6332 6.90789 3.37573 7.12537 3.37573H12.3754Z"
    fill="currentColor"
  />
</svg>

<svg xmlns="http://www.w3.org/2000/svg" width="24" height="24" fill="none" data-fui-icon="true" viewBox="0 0 24 24"><path fill="currentColor" d="M2.095 2.095a.75.75 0 0 1 1.049-.01l18.771 18.771a.75.75 0 0 1-1.07 1.05l-3.574-3.574c-.175-.175-.468-.136-.61.066a5.23 5.23 0 0 1-4.286 2.228h-5.25a5.25 5.25 0 0 1-5.243-4.98l-.007-.27v-6.75a5.23 5.23 0 0 1 1.478-3.65.4.4 0 0 0 .006-.556L2.095 3.156a.75.75 0 0 1 0-1.06m2.852 3.913a.35.35 0 0 0-.497-.01 3.74 3.74 0 0 0-1.075 2.628v6.75l.005.193a3.75 3.75 0 0 0 3.745 3.557h5.25a3.75 3.75 0 0 0 3.327-2.023.35.35 0 0 0-.07-.41zm7.428-2.632a5.25 5.25 0 0 1 4.71 2.934c.118.24.436.317.633.137l1.143-1.041c1.252-1.142 3.264-.254 3.264 1.44v10.309l-.006.156a1.9 1.9 0 0 1-.254.823c-.108.186-.36.19-.512.039l-.672-.672c-.07-.07-.076-.177-.06-.275l.004-.071V6.846a.45.45 0 0 0-.753-.333L17.476 8.7c-.517.471-1.302.125-1.378-.516a3.75 3.75 0 0 0-3.723-3.308H8.211c-.1 0-.194-.04-.265-.11l-.979-.979c-.153-.154-.06-.411.158-.411z"/></svg>
